assets/img/feature-2-card-big-shape.svg

<svg width="648" height="176" viewBox="0 0 648 176" fill="none" xmlns="http://www.w3.org/2000/svg">
<g filter="url(#filter0_b_2256_12438)">
<path d="M298.357 -3.05176e-05H0V152C0 165.255 10.7452 176 24 176H624C637.255 176 648 165.255 648 152V-3.05176e-05H349.067C347.612 -3.05176e-05 346.272 0.790311 345.567 2.0637L337.234 17.1271C335.925 19.4927 332.696 19.9058 330.834 17.9456L326.215 13.0826C324.518 11.2969 321.627 11.4536 320.133 13.4122L316.677 17.9459C314.906 20.2683 311.324 19.9719 309.96 17.39L301.893 2.13063C301.2 0.819948 299.84 -3.05176e-05 298.357 -3.05176e-05Z" fill="#919EAB" fill-opacity="1"/>
</g>
<defs>
<filter id="filter0_b_2256_12438" x="-20" y="-20" width="688" height="216" filterUnits="userSpaceOnUse" color-interpolation-filters="sRGB">
<feFlood flood-opacity="0" result="BackgroundImageFix"/>
<feGaussianBlur in="BackgroundImageFix" stdDeviation="10"/>
<feComposite in2="SourceAlpha" operator="in" result="effect1_backgroundBlur_2256_12438"/>
<feBlend mode="normal" in="SourceGraphic" in2="effect1_backgroundBlur_2256_12438" result="shape"/>
</filter>
</defs>
</svg>

<svg width="648" height="176" viewBox="0 0 648 176" fill="none" xmlns="http://www.w3.org/2000/svg"><g filter="url(#filter0_b_2256_12438)"><path d="M298.357 0H0v152c0 13.255 10.745 24 24 24h600c13.255 0 24-10.745 24-24V0H349.067a4 4 0 00-3.5 2.064l-8.333 15.063c-1.309 2.366-4.538 2.779-6.4.819l-4.619-4.863a4.001 4.001 0 00-6.082.33l-3.456 4.533c-1.771 2.322-5.353 2.026-6.717-.556l-8.067-15.26A4 4 0 00298.357 0z" fill="#919EAB"/></g><defs><filter id="filter0_b_2256_12438" x="-20" y="-20" width="688" height="216" filterUnits="userSpaceOnUse" color-interpolation-filters="sRGB"><feFlood flood-opacity="0" result="BackgroundImageFix"/><feGaussianBlur in="BackgroundImageFix" stdDeviation="10"/><feComposite in2="SourceAlpha" operator="in" result="effect1_backgroundBlur_2256_12438"/><feBlend in="SourceGraphic" in2="effect1_backgroundBlur_2256_12438" result="shape"/></filter></defs></svg>
